germany/municipalities/03459034.svg

<?xml version="1.0" encoding="UTF-8" standalone="no"?>
<!-- Created with Inkscape (http://www.inkscape.org/) -->
<svg
   xmlns:svg="http://www.w3.org/2000/svg"
   xmlns="http://www.w3.org/2000/svg"
   version="1.0"
   width="917.88251"
   height="1171.6741"
   id="svg2477">
  <defs
     id="defs2480" />
  <g
     transform="translate(-22.196827,-12.775347)"
     id="g3272">
    <path
       d="M 923.73257,542.63293 C 924.079,540.03381 33.470268,561.65707 33.898833,558.07582 C -10.186563,1160.8407 462.4892,1167.8246 464.53792,1167.3455 C 467.57733,1166.6345 979.44859,1208.902 923.73257,542.63293 z"
       id="path3377"
       style="opacity:1;fill:#da121a;fill-opacity:1;fill-rule:nonzero;stroke:none;display:inline" />
    <path
       d="M 923.48023,690.75583 C 923.48023,953.43361 725.21322,1165.6866 480.83761,1165.6866 C 237.38417,1165.6866 39.11716,953.43361 39.11716,690.75583 L 39.11716,31.716011 L 923.48023,31.716011 L 923.48023,690.75583 z M 940.07934,12.953303 L 940.07934,690.75583 C 940.07934,963.98762 734.43496,1184.4494 480.83761,1184.4494 C 228.16244,1184.4494 22.518054,963.98762 22.518054,690.75583 L 22.518054,12.953303 L 940.07934,12.953303"
       id="path523"
       style="fill:#000000;fill-opacity:1;fill-rule:evenodd;stroke:none" />
    <rect
       width="894.81555"
       height="527.93243"
       x="33.761105"
       y="24.754162"
       id="rect3436"
       style="opacity:1;fill:#e7e7e7;fill-opacity:1;fill-rule:evenodd;stroke:#000000;stroke-width:18;stroke-linejoin:miter;stroke-miterlimit:4;stroke-dasharray:none;stroke-opacity:1" />
    <rect
       width="899.25629"
       height="140.198"
       x="31.199701"
       y="218.21271"
       id="rect3438"
       style="fill:#da121a;fill-opacity:1;fill-rule:evenodd;stroke:#000000;stroke-width:18.00574875;stroke-linejoin:miter;stroke-miterlimit:4;stroke-dasharray:none;stroke-opacity:1" />
    <rect
       width="531.05048"
       height="160.17297"
       x="21.942915"
       y="-556.41632"
       transform="matrix(1.021851e-3,0.9999995,-1,2.7341548e-4,0,0)"
       id="rect3440"
       style="fill:#da121a;fill-opacity:1;fill-rule:evenodd;stroke:#000000;stroke-width:18.03084946;stroke-linejoin:miter;stroke-miterlimit:4;stroke-dasharray:none;stroke-opacity:1" />
    <rect
       width="22.077923"
       height="122.07793"
       x="385.06494"
       y="227.27272"
       id="rect4224"
       style="fill:#da121a;fill-opacity:1;fill-rule:evenodd;stroke:none;stroke-width:18;stroke-linecap:square;stroke-linejoin:miter;stroke-miterlimit:4;stroke-dasharray:none;stroke-opacity:1" />
    <rect
       width="22.077923"
       height="122.07793"
       x="545.45453"
       y="227.27272"
       id="rect4226"
       style="fill:#da121a;fill-opacity:1;fill-rule:evenodd;stroke:none;stroke-width:18;stroke-linecap:square;stroke-linejoin:miter;stroke-miterlimit:4;stroke-dasharray:none;stroke-opacity:1" />
    <path
       d="M 82.190435,745.49082 C 83.512127,746.17376 79.823477,801.14022 93.816578,828.30925 C 99.494187,839.33291 73.383385,817.22571 73.459326,818.37743 C 74.033387,816.23089 109.67285,891.09785 108.74072,892.24789 C 107.97222,893.19605 87.336348,884.60468 85.831967,882.35126 C 111.81359,924.13722 142.09521,944.44272 142.02135,944.42174 C 141.9947,944.41417 118.18279,951.72207 118.89652,951.468 C 128.77949,947.94986 210.35029,1043.3738 240.67959,951.0586 C 241.82248,947.57993 279.10365,966.97094 311.70721,967.8547 C 315.71771,967.96341 352.61647,995.29282 267.5274,1015.3685 C 266.88184,1015.5208 200.5368,1039.5447 201.40875,1039.8525 C 225.67982,1048.4205 250.45362,1060.6175 269.96614,1068.7137 C 284.47275,1074.7329 324.03863,992.43495 386.28182,1045.6799 C 400.44371,1057.7944 394.63666,987.09262 525.40387,1047.16 C 542.43695,1054.984 562.32667,1067.6303 580.72683,1082.149 C 581.18064,1082.5071 598.75869,1071.4086 617.75302,1057.8267 C 617.78025,1057.8072 590.4915,1044.0315 591.08572,1044.0637 C 700.48042,1049.9776 724.05636,1028.8165 733.82858,1024.4114 C 800.07904,994.5475 794.26765,1005.3651 792.71407,1004.9205 C 759.35614,995.37465 713.60581,993.76175 708.03183,997.74509 C 676.60474,1020.2039 639.99817,1018.2755 641.18768,1016.8122 C 686.56774,960.99044 746.23655,860.6277 746.15287,860.89345 C 718.78457,947.8154 774.87904,954.52441 774.97658,954.50346 C 842.21418,940.06134 839.75493,876.91755 839.82798,876.91713 C 867.48422,876.76008 873.8421,852.36861 875.17054,843.99471 C 880.84395,808.23222 856.14228,794.04033 851.14663,792.02644 C 818.19445,778.74251 769.29676,816.58791 769.33229,816.54106 C 821.57257,747.65954 865.30399,753.01306 869.19834,684.08047 C 873.50286,607.88756 799.36039,651.32402 799.11282,650.98502 C 785.10379,631.80227 712.18838,624.7665 712.88493,690.63911 C 712.96745,698.44316 737.84932,787.17049 737.81972,787.13793 C 670.31498,712.90201 648.91209,752.75939 648.81848,752.89127 C 631.48151,777.31392 649.1189,826.77961 649.08944,826.80277 C 635.65558,837.36404 622.82438,859.72864 622.74354,859.8569 C 588.22892,914.61038 631.81532,917.69651 640.70745,918.69127 C 665.79815,921.49815 737.45389,852.43686 737.37896,852.54788 C 683.89466,931.7927 629.54847,1000.3062 624.8932,1003.3803 C 593.19797,1024.3102 559.79922,1016.5407 554.93206,1013.4126 C 552.69372,1011.974 594.63585,995.20736 594.6266,995.15509 C 594.03529,991.81599 580.02514,979.83347 579.9895,979.86316 C 563.06106,993.96372 529.30668,1009.1075 529.21517,1009.1464 C 515.29947,1015.058 493.69836,1012.1313 491.06514,1011.4473 C 453.19617,1001.6109 471.18839,966.88302 472.90519,964.97559 C 485.16404,951.35557 562.67723,923.09023 565.54616,921.1761 C 598.4329,899.23437 567.33597,875.08866 560.87416,875.70625 C 511.99126,880.37825 518.06459,855.69068 522.90483,853.27444 C 553.98871,837.75744 574.38069,818.94673 583.79722,811.45871 C 618.90104,783.54414 588.3373,757.03573 577.62419,759.6965 C 519.59157,774.10983 528.16199,748.48399 529.10928,744.59184 C 531.72674,733.83751 572.49772,714.36911 580.26475,708.04193 C 596.18719,695.07119 600.47639,664.97222 574.959,662.5557 C 542.55796,659.48729 518.35036,696.90208 511.5163,686.65377 C 499.05025,667.95976 526.07878,635.19914 522.14114,621.10776 C 503.99447,556.16747 431.13341,596.45497 442.56663,619.83707 C 459.85188,655.18718 435.38145,673.1825 428.91343,671.55158 C 382.15807,659.76214 369.02085,669.24364 362.45336,684.88042 C 352.01947,709.72284 392.17449,725.96305 401.86029,733.05845 C 442.91203,763.13117 390.31763,772.48123 390.17947,772.50973 C 314.87956,788.04266 360.18432,837.29896 393.05889,841.86339 C 428.7744,846.82226 413.83194,865.55041 408.41133,866.31822 C 352.67379,874.21317 330.07127,913.3734 363.05887,944.5849 C 366.67525,948.00657 419.32262,945.70265 419.66028,945.66009 C 475.52467,938.61929 442.54043,996.07566 438.35471,996.94094 C 437.58019,997.10105 337.30553,997.57584 337.50408,997.33782 C 381.73945,944.31051 255.67301,933.90136 255.82085,933.85228 C 347.81193,903.3154 340.76498,808.94695 337.25029,827.74289 C 336.1301,833.73346 309.83704,858.57601 311.83093,853.8646 C 325.10861,822.49054 324.30068,750.88094 324.15635,751.48778 C 319.68507,770.28725 299.52107,793.91851 299.74692,789.18673 C 301.55917,751.21729 300.85409,716.96865 291.88829,704.5073 C 288.94375,700.41476 279.79255,739.13523 276.71085,731.16105 C 263.82863,697.82709 246.4872,666.18713 245.46205,666.58024 C 243.68978,667.25985 235.01487,677.92396 234.67035,677.67988 C 200.78994,653.67648 206.74382,627.45199 200.32066,628.24626 C 164.24556,632.70723 135.61239,694.43428 124.14821,716.04091 C 122.4044,716.51716 123.53772,713.3367 120.55741,689.3483 C 120.2182,686.61797 90.34167,754.31307 98.919257,765.28033 C 92.078211,751.14403 80.266129,747.39936 82.190435,745.49082 z"
       id="path3730"
       style="fill:#e7e7e7;fill-opacity:1;fill-rule:nonzero;stroke:#000000;stroke-width:7;stroke-miterlimit:4;stroke-dasharray:none;stroke-opacity:1" />
    <path
       d="M 752.85335,809.78167 C 762.88565,797.41574 767.9911,745.53909 765.34399,748.78293 C 760.27762,789.10482 748.5806,815.04831 752.85335,809.78167 z"
       id="path3822"
       style="fill:#008000;fill-opacity:1;fill-rule:nonzero;stroke:#000000;stroke-width:6.06418324;marker-mid:none;stroke-miterlimit:4;stroke-dasharray:none;stroke-opacity:1" />
    <path
       d="M 717.85555,834.10516 C 694.67313,815.96585 671.33791,830.79847 675.08249,832.67138 C 719.43168,827.49055 720.59142,836.24586 717.85555,834.10516 z"
       id="path4558"
       style="fill:#008000;fill-opacity:1;fill-rule:nonzero;stroke:#000000;stroke-width:6.06418324;marker-mid:none;stroke-miterlimit:4;stroke-dasharray:none;stroke-opacity:1" />
    <path
       d="M 794.27365,857.16848 C 776.30407,833.85425 750.02301,842.44755 753.18729,845.18926 C 797.4384,851.15004 796.39433,859.9199 794.27365,857.16848 z"
       id="path4560"
       style="fill:#008000;fill-opacity:1;fill-rule:nonzero;stroke:#000000;stroke-width:6.06418324;marker-mid:none;stroke-miterlimit:4;stroke-dasharray:none;stroke-opacity:1" />
    <path
       d="M 135.18735,890.0565 C 148.12303,916.49752 175.59272,913.34236 173.04172,910.02241 C 130.88127,895.31909 133.66075,886.93607 135.18735,890.0565 z"
       id="path4562"
       style="fill:#008000;fill-opacity:1;fill-rule:nonzero;stroke:#000000;stroke-width:6.06418324;marker-mid:none;stroke-miterlimit:4;stroke-dasharray:none;stroke-opacity:1" />
    <path
       d="M 122.15889,781.27495 C 130.2888,809.64973 145.82409,826.38017 147.90644,822.54981 C 144.35026,812.52307 121.20206,777.93547 122.15889,781.27495 z"
       id="path4564"
       style="fill:#008000;fill-opacity:1;fill-rule:nonzero;stroke:#000000;stroke-width:6.06418324;marker-mid:none;stroke-miterlimit:4;stroke-dasharray:none;stroke-opacity:1" />
    <path
       d="M 278.82862,832.04845 C 270.46408,860.35494 250.4714,874.56833 249.9605,874.96361 C 247.45805,876.25735 282.31871,820.23764 278.82862,832.04845 z"
       id="path4566"
       style="fill:#000000;fill-opacity:0;fill-rule:nonzero;stroke:#000000;stroke-width:10;marker-mid:none;stroke-miterlimit:4;stroke-dasharray:none;stroke-opacity:1" />
    <path
       d="M 231.25859,727.72645 C 224.96678,674.9508 232.12215,786.80477 212.45541,793.69356 C 207.35556,791.41587 237.73013,782.33423 231.25859,727.72645 z"
       id="path4568"
       style="fill:#000000;fill-opacity:0;fill-rule:nonzero;stroke:#000000;stroke-width:10;marker-mid:none;stroke-miterlimit:4;stroke-dasharray:none;stroke-opacity:1" />
    <path
       d="M 170.86151,724.09035 C 173.56575,701.41242 162.77026,830.70934 232.87054,907.60248 C 216.75084,886.95838 159.08891,822.81611 170.86151,724.09035 z"
       id="path4570"
       style="fill:#000000;fill-opacity:0;fill-rule:nonzero;stroke:#000000;stroke-width:10;marker-mid:none;stroke-miterlimit:4;stroke-dasharray:none;stroke-opacity:1" />
    <path
       d="M 535.7458,785.9654 C 506.33579,787.19434 498.19437,813.61888 502.25928,812.61579 C 532.65537,779.90846 539.21661,785.82036 535.7458,785.9654 z"
       id="path4572"
       style="fill:#008000;fill-opacity:1;fill-rule:nonzero;stroke:#000000;stroke-width:6.06418324;marker-mid:none;stroke-miterlimit:4;stroke-dasharray:none;stroke-opacity:1" />
    <path
       d="M 487.94028,746.3127 C 515.95545,737.27892 516.74894,709.64001 513.09921,711.69163 C 492.53518,751.32509 484.63408,747.37881 487.94028,746.3127 z"
       id="path4574"
       style="fill:#008000;fill-opacity:1;fill-rule:nonzero;stroke:#000000;stroke-width:6.06418324;marker-mid:none;stroke-miterlimit:4;stroke-dasharray:none;stroke-opacity:1" />
    <path
       d="M 392.86514,911.86655 C 398.85551,925.01671 443.00863,917.21098 440.85252,914.43554 C 406.02536,914.28913 391.42506,908.70527 392.86514,911.86655 z"
       id="path4576"
       style="fill:#000000;fill-opacity:1;fill-rule:nonzero;stroke:#000000;stroke-width:6.06418324;marker-mid:none;stroke-miterlimit:4;stroke-dasharray:none;stroke-opacity:1" />
    <path
       d="M 440.89773,836.68239 C 441.16983,822.23465 397.97205,810.21886 398.71907,813.65308 C 430.07205,828.81697 440.83232,840.1556 440.89773,836.68239 z"
       id="path4578"
       style="fill:#000000;fill-opacity:1;fill-rule:nonzero;stroke:#000000;stroke-width:6.06418324;marker-mid:none;stroke-miterlimit:4;stroke-dasharray:none;stroke-opacity:1" />
    <path
       d="M 494.8823,913.54227 C 506.1417,922.5997 542.08206,895.79079 538.90893,894.27977 C 507.72812,909.79459 492.17556,911.36488 494.8823,913.54227 z"
       id="path4580"
       style="fill:#000000;fill-opacity:1;fill-rule:nonzero;stroke:#000000;stroke-width:6.06418324;marker-mid:none;stroke-miterlimit:4;stroke-dasharray:none;stroke-opacity:1" />
    <path
       d="M 448.8877,734.00992 C 431.21934,728.88206 418.68535,704.95827 420.65214,705.53391 C 448.81043,725.35002 449.74099,734.25757 448.8877,734.00992 z"
       id="path4582"
       style="fill:#000000;fill-opacity:1;fill-rule:nonzero;stroke:#000000;stroke-width:6.06418324;marker-mid:none;stroke-miterlimit:4;stroke-dasharray:none;stroke-opacity:1" />
    <path
       d="M 481.0091,790.86399 C 453.54008,767.94303 468.33922,683.89026 470.30601,684.4659 C 456.25651,752.33396 485.15866,794.3265 481.0091,790.86399 z"
       id="path4584"
       style="fill:#000000;fill-opacity:1;fill-rule:nonzero;stroke:#000000;stroke-width:6.06418324;marker-mid:none;stroke-miterlimit:4;stroke-dasharray:none;stroke-opacity:1" />
    <path
       d="M 480.35912,784.50401 C 504.52038,810.88868 478.6267,892.2115 476.75442,891.37831 C 499.74335,825.99505 476.70925,780.51826 480.35912,784.50401 z"
       id="path4586"
       style="fill:#000000;fill-opacity:1;fill-rule:nonzero;stroke:#000000;stroke-width:6.06418324;marker-mid:none;stroke-miterlimit:4;stroke-dasharray:none;stroke-opacity:1" />
    <path
       d="M 475.89932,893.43434 C 469.88057,914.92599 474.1669,933.28468 472.29462,932.45149 C 472.2316,908.95135 478.24555,885.05647 475.89932,893.43434 z"
       id="path4588"
       style="fill:#000000;fill-opacity:1;fill-rule:nonzero;stroke:#000000;stroke-width:6.06418324;marker-mid:none;stroke-miterlimit:4;stroke-dasharray:none;stroke-opacity:1" />
  </g>
</svg>

<svg xmlns="http://www.w3.org/2000/svg" version="1.0" width="917.883" height="1171.674"><path d="M923.733 542.633c.346-2.6-890.263 19.024-889.834 15.443-44.086 602.765 428.59 609.749 430.639 609.27 3.04-.712 514.91 41.556 459.195-624.713z" style="opacity:1;fill:#da121a;fill-opacity:1;fill-rule:nonzero;stroke:none;display:inline" transform="translate(-22.197 -12.775)"/><path d="M923.48 690.756c0 262.678-198.267 474.93-442.642 474.93-243.454 0-441.72-212.252-441.72-474.93V31.716H923.48v659.04zm16.6-677.803v677.803c0 273.232-205.645 493.693-459.242 493.693-252.676 0-458.32-220.461-458.32-493.693V12.953H940.08" style="fill:#000;fill-opacity:1;fill-rule:evenodd;stroke:none" transform="translate(-22.197 -12.775)"/><path style="opacity:1;fill:#e7e7e7;fill-opacity:1;fill-rule:evenodd;stroke:#000;stroke-width:18;stroke-linejoin:miter;stroke-miterlimit:4;stroke-dasharray:none;stroke-opacity:1" d="M33.761 24.754h894.816v527.932H33.761z" transform="translate(-22.197 -12.775)"/><path style="fill:#da121a;fill-opacity:1;fill-rule:evenodd;stroke:#000;stroke-width:18.00574875;stroke-linejoin:miter;stroke-miterlimit:4;stroke-dasharray:none;stroke-opacity:1" d="M31.2 218.213h899.256v140.198H31.2z" transform="translate(-22.197 -12.775)"/><path transform="rotate(89.941 -4.704 -17.497) skewX(-.043)" style="fill:#da121a;fill-opacity:1;fill-rule:evenodd;stroke:#000;stroke-width:18.03084946;stroke-linejoin:miter;stroke-miterlimit:4;stroke-dasharray:none;stroke-opacity:1" d="M21.943-556.416h531.05v160.173H21.943z"/><path style="fill:#da121a;fill-opacity:1;fill-rule:evenodd;stroke:none;stroke-width:18;stroke-linecap:square;stroke-linejoin:miter;stroke-miterlimit:4;stroke-dasharray:none;stroke-opacity:1" d="M385.065 227.273h22.078v122.078h-22.078zM545.455 227.273h22.078v122.078h-22.078z" transform="translate(-22.197 -12.775)"/><path d="M82.19 745.49c1.322.684-2.367 55.65 11.627 82.82 5.677 11.023-20.434-11.084-20.358-9.933.574-2.146 36.214 72.72 35.282 73.87-.769.95-21.405-7.642-22.909-9.896 25.982 41.786 56.263 62.092 56.19 62.07-.027-.007-23.84 7.301-23.125 7.047 9.882-3.518 91.453 91.906 121.783-.41 1.142-3.478 38.424 15.913 71.027 16.797 4.01.108 40.91 27.438-44.18 47.514-.645.152-66.99 24.176-66.118 24.483 24.27 8.568 49.045 20.765 68.557 28.862 14.507 6.019 54.073-76.279 116.316-23.034 14.162 12.114 8.355-58.587 139.122 1.48 17.033 7.824 36.923 20.47 55.323 34.989.454.358 18.032-10.74 37.026-24.322.027-.02-27.262-13.795-26.667-13.763 109.394 5.914 132.97-15.248 142.743-19.653 66.25-29.864 60.439-19.046 58.885-19.49-33.358-9.546-79.108-11.16-84.682-7.176-31.427 22.459-68.034 20.53-66.844 19.067 45.38-55.822 105.049-156.184 104.965-155.919-27.368 86.922 28.726 93.631 28.824 93.61 67.237-14.442 64.778-77.585 64.851-77.586 27.656-.157 34.014-24.548 35.343-32.922 5.673-35.763-19.029-49.955-24.024-51.969-32.953-13.283-81.85 24.562-81.815 24.515 52.24-68.881 95.972-63.528 99.866-132.46 4.305-76.193-69.838-32.757-70.085-33.096-14.01-19.183-86.925-26.219-86.228 39.654.082 7.804 24.964 96.531 24.935 96.499-67.505-74.236-88.908-34.379-89.002-34.247-17.336 24.423.3 73.889.271 73.912-13.433 10.561-26.265 32.926-26.345 33.054-34.515 54.753 9.071 57.84 17.963 58.834 25.091 2.807 96.747-66.254 96.672-66.143-53.484 79.245-107.83 147.758-112.486 150.832-31.695 20.93-65.094 13.16-69.96 10.033-2.24-1.439 39.703-18.206 39.694-18.258-.592-3.339-14.602-15.322-14.637-15.292-16.929 14.1-50.683 29.244-50.775 29.283-13.916 5.912-35.517 2.985-38.15 2.301-37.869-9.836-19.877-44.564-18.16-46.471 12.259-13.62 89.772-41.886 92.641-43.8 32.887-21.942 1.79-46.087-4.672-45.47-48.883 4.672-42.81-20.015-37.97-22.432 31.085-15.517 51.477-34.327 60.893-41.815 35.104-27.915 4.54-54.423-6.173-51.762-58.032 14.413-49.462-11.213-48.515-15.105 2.618-10.754 43.389-30.223 51.156-36.55 15.922-12.97 20.211-43.07-5.306-45.486-32.401-3.069-56.609 34.346-63.443 24.098-12.466-18.694 14.563-51.455 10.625-65.546-18.147-64.94-91.008-24.653-79.574-1.27 17.285 35.35-7.186 53.345-13.654 51.714-46.755-11.79-59.892-2.308-66.46 13.328-10.434 24.843 29.721 41.083 39.407 48.178 41.052 30.073-11.542 39.423-11.68 39.452-75.3 15.533-29.996 64.789 2.879 69.353 35.715 4.96 20.773 23.687 15.352 24.455-55.737 7.895-78.34 47.055-45.352 78.267 3.616 3.422 56.264 1.118 56.601 1.075 55.865-7.04 22.88 50.416 18.695 51.28-.775.161-101.05.636-100.85.398 44.234-53.027-81.832-63.437-81.684-63.486 91.99-30.537 84.944-124.905 81.43-106.11-1.12 5.991-27.414 30.834-25.42 26.123 13.278-31.374 12.47-102.984 12.325-102.377-4.47 18.8-24.635 42.43-24.41 37.699 1.813-37.97 1.108-72.218-7.858-84.68-2.944-4.092-12.095 34.628-15.177 26.654-12.882-33.334-30.224-64.974-31.249-64.58-1.772.679-10.447 11.343-10.792 11.099-33.88-24.004-27.926-50.228-34.35-49.434-36.074 4.461-64.708 66.188-76.172 87.795-1.744.476-.61-2.704-3.59-26.693-.34-2.73-30.216 64.965-21.639 75.932-6.84-14.136-18.653-17.88-16.729-19.79z" style="fill:#e7e7e7;fill-opacity:1;fill-rule:nonzero;stroke:#000;stroke-width:7;stroke-miterlimit:4;stroke-dasharray:none;stroke-opacity:1" transform="translate(-22.197 -12.775)"/><path d="M752.853 809.782c10.033-12.366 15.138-64.243 12.491-61-5.066 40.323-16.763 66.266-12.49 61z" style="fill:green;fill-opacity:1;fill-rule:nonzero;stroke:#000;stroke-width:6.06418324;marker-mid:none;stroke-miterlimit:4;stroke-dasharray:none;stroke-opacity:1" transform="translate(-22.197 -12.775)"/><path d="M717.856 834.105c-23.183-18.14-46.518-3.307-42.774-1.434 44.35-5.18 45.51 3.575 42.774 1.434z" style="fill:green;fill-opacity:1;fill-rule:nonzero;stroke:#000;stroke-width:6.06418324;marker-mid:none;stroke-miterlimit:4;stroke-dasharray:none;stroke-opacity:1" transform="translate(-22.197 -12.775)"/><path d="M794.274 857.168c-17.97-23.314-44.251-14.72-41.087-11.979 44.251 5.961 43.207 14.73 41.087 11.98z" style="fill:green;fill-opacity:1;fill-rule:nonzero;stroke:#000;stroke-width:6.06418324;marker-mid:none;stroke-miterlimit:4;stroke-dasharray:none;stroke-opacity:1" transform="translate(-22.197 -12.775)"/><path d="M135.187 890.057c12.936 26.44 40.406 23.285 37.855 19.965-42.16-14.703-39.381-23.086-37.855-19.966z" style="fill:green;fill-opacity:1;fill-rule:nonzero;stroke:#000;stroke-width:6.06418324;marker-mid:none;stroke-miterlimit:4;stroke-dasharray:none;stroke-opacity:1" transform="translate(-22.197 -12.775)"/><path d="M122.159 781.275c8.13 28.375 23.665 45.105 25.747 41.275-3.556-10.027-26.704-44.615-25.747-41.275z" style="fill:green;fill-opacity:1;fill-rule:nonzero;stroke:#000;stroke-width:6.06418324;marker-mid:none;stroke-miterlimit:4;stroke-dasharray:none;stroke-opacity:1" transform="translate(-22.197 -12.775)"/><path d="M278.829 832.048c-8.365 28.307-28.358 42.52-28.869 42.916-2.502 1.293 32.359-54.726 28.869-42.916z" style="fill:#000;fill-opacity:0;fill-rule:nonzero;stroke:#000;stroke-width:10;marker-mid:none;stroke-miterlimit:4;stroke-dasharray:none;stroke-opacity:1" transform="translate(-22.197 -12.775)"/><path d="M231.259 727.726c-6.292-52.775.863 59.079-18.804 65.968-5.1-2.278 25.275-11.36 18.804-65.968z" style="fill:#000;fill-opacity:0;fill-rule:nonzero;stroke:#000;stroke-width:10;marker-mid:none;stroke-miterlimit:4;stroke-dasharray:none;stroke-opacity:1" transform="translate(-22.197 -12.775)"/><path d="M170.862 724.09c2.704-22.678-8.092 106.62 62.009 183.512-16.12-20.644-73.782-84.786-62.01-183.512z" style="fill:#000;fill-opacity:0;fill-rule:nonzero;stroke:#000;stroke-width:10;marker-mid:none;stroke-miterlimit:4;stroke-dasharray:none;stroke-opacity:1" transform="translate(-22.197 -12.775)"/><path d="M535.746 785.965c-29.41 1.23-37.552 27.654-33.487 26.65 30.396-32.707 36.958-26.795 33.487-26.65z" style="fill:green;fill-opacity:1;fill-rule:nonzero;stroke:#000;stroke-width:6.06418324;marker-mid:none;stroke-miterlimit:4;stroke-dasharray:none;stroke-opacity:1" transform="translate(-22.197 -12.775)"/><path d="M487.94 746.313c28.015-9.034 28.809-36.673 25.16-34.621-20.565 39.633-28.466 35.687-25.16 34.62z" style="fill:green;fill-opacity:1;fill-rule:nonzero;stroke:#000;stroke-width:6.06418324;marker-mid:none;stroke-miterlimit:4;stroke-dasharray:none;stroke-opacity:1" transform="translate(-22.197 -12.775)"/><path d="M392.865 911.867c5.99 13.15 50.144 5.344 47.988 2.569-34.828-.147-49.428-5.73-47.988-2.57z" style="fill:#000;fill-opacity:1;fill-rule:nonzero;stroke:#000;stroke-width:6.06418324;marker-mid:none;stroke-miterlimit:4;stroke-dasharray:none;stroke-opacity:1" transform="translate(-22.197 -12.775)"/><path d="M440.898 836.682c.272-14.447-42.926-26.463-42.179-23.029 31.353 15.164 42.113 26.503 42.179 23.03z" style="fill:#000;fill-opacity:1;fill-rule:nonzero;stroke:#000;stroke-width:6.06418324;marker-mid:none;stroke-miterlimit:4;stroke-dasharray:none;stroke-opacity:1" transform="translate(-22.197 -12.775)"/><path d="M494.882 913.542c11.26 9.058 47.2-17.751 44.027-19.262-31.18 15.515-46.733 17.085-44.027 19.262z" style="fill:#000;fill-opacity:1;fill-rule:nonzero;stroke:#000;stroke-width:6.06418324;marker-mid:none;stroke-miterlimit:4;stroke-dasharray:none;stroke-opacity:1" transform="translate(-22.197 -12.775)"/><path d="M448.888 734.01c-17.669-5.128-30.203-29.052-28.236-28.476 28.158 19.816 29.089 28.724 28.236 28.476z" style="fill:#000;fill-opacity:1;fill-rule:nonzero;stroke:#000;stroke-width:6.06418324;marker-mid:none;stroke-miterlimit:4;stroke-dasharray:none;stroke-opacity:1" transform="translate(-22.197 -12.775)"/><path d="M481.01 790.864c-27.47-22.921-12.67-106.974-10.704-106.398-14.05 67.868 14.853 109.86 10.703 106.398z" style="fill:#000;fill-opacity:1;fill-rule:nonzero;stroke:#000;stroke-width:6.06418324;marker-mid:none;stroke-miterlimit:4;stroke-dasharray:none;stroke-opacity:1" transform="translate(-22.197 -12.775)"/><path d="M480.36 784.504c24.16 26.385-1.733 107.707-3.606 106.874 22.99-65.383-.045-110.86 3.605-106.874z" style="fill:#000;fill-opacity:1;fill-rule:nonzero;stroke:#000;stroke-width:6.06418324;marker-mid:none;stroke-miterlimit:4;stroke-dasharray:none;stroke-opacity:1" transform="translate(-22.197 -12.775)"/><path d="M475.9 893.434c-6.02 21.492-1.733 39.85-3.605 39.017-.063-23.5 5.95-47.395 3.604-39.017z" style="fill:#000;fill-opacity:1;fill-rule:nonzero;stroke:#000;stroke-width:6.06418324;marker-mid:none;stroke-miterlimit:4;stroke-dasharray:none;stroke-opacity:1" transform="translate(-22.197 -12.775)"/></svg>
